docs/assets/images/hand-card.svg

<svg xmlns="http://www.w3.org/2000/svg" width="69" height="68" fill="none" viewBox="0 0 69 68"><path fill="#008C59" d="M56.4219 40.9701L32.6205 24.7825C31.4769 24.0048 29.9193 24.3013 29.1415 25.4449L20.7593 37.7697C19.9816 38.9133 20.2781 40.4708 21.4217 41.2486L45.2232 57.4362C46.3668 58.214 47.9243 57.9174 48.7021 56.7738L57.0843 44.449C57.862 43.3055 57.5655 41.7479 56.4219 40.9701Z"/><path fill="#E3A171" d="M27.5959 27.6191C27.5959 27.6191 28.5283 27.7423 29.524 27.6823C30.5197 27.6224 31.9483 27.1862 31.9483 27.1862C31.9483 27.1862 32.4444 32.8472 33.1304 33.5298C33.8164 34.2125 36.1773 35.954 38.3552 34.7752C40.533 33.5931 41.502 33.4133 41.0924 31.9148C40.6828 30.4163 37.6093 24.5754 37.6093 24.5754C37.6093 24.5754 37.546 21.342 37.546 20.7193C37.546 20.0966 38.2286 15.4945 34.3725 14.6853C30.5164 13.8762 27.5926 14.0027 25.0418 13.1302C22.4911 12.2611 20.3166 10.02 20.3166 10.02C20.3166 10.02 10.6762 13.8762 10.4897 22.1479C10.4897 22.1479 14.1594 25.6943 15.5913 28.2418C17.0232 30.7892 18.8247 36.9497 21.1258 37.0729L27.5926 27.6191H27.5959Z"/><path fill="#E3A171" d="M38.415 52.9971L22.6175 42.4243C22.6175 42.4243 18.0155 46.3437 20.0667 48.4583C22.118 50.5728 25.5413 48.2085 25.5413 48.2085C25.5413 48.2085 24.1094 51.1323 25.5413 52.3144C26.9732 53.4966 30.6428 51.8782 30.6428 51.8782C30.6428 51.8782 29.151 54.8652 31.3887 55.9841C33.6265 57.1029 37.2362 54.3657 38.4184 52.9971H38.415Z"/><path stroke="#002140" stroke-linecap="round" stroke-linejoin="round" stroke-width=".999" d="M40.6796 30.4129L56.3172 41.0489C57.4727 41.8348 57.7724 43.4066 56.9866 44.5621L48.6383 56.8365C47.8524 57.992 46.2806 58.2917 45.1251 57.5058L21.2057 41.2354C20.0502 40.4495 19.7505 38.8778 20.5364 37.7223L27.606 27.3293"/><path fill="#085239" d="M31.9637 35.571L31.6388 35.35C31.3742 35.1701 31.0138 35.2387 30.8338 35.5033L30.2439 36.3706C30.064 36.6352 30.1326 36.9956 30.3972 37.1756L30.7221 37.3966C30.9867 37.5765 31.3471 37.5079 31.5271 37.2433L32.117 36.376C32.2969 36.1114 32.2283 35.751 31.9637 35.571Z"/><path fill="#085239" d="M33.2288 33.7499L32.9039 33.529C32.6393 33.349 32.2789 33.4176 32.099 33.6822L31.7188 34.2412C31.5388 34.5058 31.6075 34.8662 31.8721 35.0462L32.197 35.2671C32.4616 35.4471 32.822 35.3785 33.0019 35.1139L33.3821 34.5549C33.5621 34.2903 33.4934 33.9299 33.2288 33.7499Z"/><path fill="#085239" d="M33.4105 36.9829L33.0856 36.7619C32.821 36.5819 32.4606 36.6505 32.2806 36.9151L31.9004 37.4741C31.7205 37.7387 31.7891 38.0991 32.0537 38.2791L32.3786 38.5001C32.6432 38.68 33.0036 38.6114 33.1836 38.3468L33.5637 37.7878C33.7437 37.5232 33.6751 37.1628 33.4105 36.9829Z"/><path fill="#085239" d="M34.8138 34.8313L34.4889 34.6103C34.2243 34.4303 33.8639 34.4989 33.6839 34.7635L33.0397 35.7107C32.8597 35.9754 32.9284 36.3357 33.193 36.5157L33.5179 36.7367C33.7825 36.9167 34.1429 36.848 34.3229 36.5834L34.9671 35.6362C35.147 35.3716 35.0784 35.0112 34.8138 34.8313Z"/><path fill="#03D47C" d="M53.0311 41.7588L44.7788 36.1463C43.7462 35.4441 42.3399 35.7118 41.6376 36.7444C40.9354 37.777 41.2031 39.1833 42.2357 39.8856L50.488 45.4981C51.5206 46.2003 52.9269 45.9326 53.6292 44.9C54.3315 43.8674 54.0637 42.4611 53.0311 41.7588Z"/><path stroke="#002140" stroke-linecap="round" stroke-linejoin="round" stroke-width=".999" d="M20.1831 10C20.1831 10 10.8625 13.7063 10.333 21.9713C16.3803 26.7565 17.276 34.0759 20.8791 37.1228"/><path stroke="#002140" stroke-linecap="round" stroke-linejoin="round" stroke-width=".999" d="M22.7106 42.261C19.9434 44.289 18.4449 47.7788 20.8758 48.9709C22.694 49.86 24.8751 48.608 26.2771 47.4491"/><path stroke="#002140" stroke-linecap="round" stroke-linejoin="round" stroke-width=".999" d="M27.912 45.9441C24.925 48.4083 23.5331 51.4353 25.964 52.6241C27.5524 53.4033 29.4238 52.5408 30.8058 51.5385"/><path stroke="#002140" stroke-linecap="round" stroke-linejoin="round" stroke-width=".999" d="M32.9701 49.3206C29.8699 52.1377 28.7743 54.9283 31.2052 56.1171C33.0234 57.0062 35.401 56.3069 38.3714 52.9103"/><path stroke="#002140" stroke-linecap="round" stroke-linejoin="round" stroke-width=".999" d="M24.0127 38.9775L28.9511 42.3375"/><path stroke="#002140" stroke-linecap="round" stroke-linejoin="round" stroke-width=".999" d="M31.2119 43.876L36.1503 47.2326"/><path fill="#085239" d="M29.4937 36.1637L32.231 32.1378C32.3742 31.928 32.3176 31.6449 32.1111 31.5017L30.7358 30.566C30.6193 30.4861 30.4727 30.4661 30.3362 30.5094L29.4571 30.7925C29.3605 30.8224 29.2773 30.8857 29.2173 30.9723L27.2293 33.896C27.1761 33.9726 27.1494 34.0658 27.1494 34.1591L27.1561 34.9017C27.1561 35.0515 27.2327 35.1914 27.3592 35.278L28.8577 36.287C29.0675 36.4268 29.3505 36.3735 29.4937 36.1637Z"/><path stroke="#002140" stroke-linecap="round" stroke-linejoin="round" stroke-width=".999" d="M25.5114 26.2104C25.5114 26.2104 29.3775 29.1508 32.0781 26.8465C31.4421 32.2477 34.1694 36.8298 38.9646 34.5787C43.7564 32.3276 37.879 26.6866 37.4827 23.7462C37.0865 20.8058 38.6749 18.345 36.0541 15.8009C33.4334 13.2567 24.6656 15.0849 20.3232 10"/></svg>

<svg xmlns="http://www.w3.org/2000/svg" width="69" height="68" fill="none" viewBox="0 0 69 68"><path fill="#008c59" d="M56.422 40.97 32.62 24.783a2.504 2.504 0 0 0-3.48.662L20.76 37.77a2.504 2.504 0 0 0 .663 3.479l23.801 16.187a2.504 2.504 0 0 0 3.48-.662l8.381-12.325a2.504 2.504 0 0 0-.662-3.479"/><path fill="#e3a171" d="M27.596 27.62s.932.122 1.928.062 2.424-.496 2.424-.496.496 5.661 1.182 6.344c.686.682 3.047 2.424 5.225 1.245 2.178-1.182 3.147-1.362 2.737-2.86-.41-1.499-3.483-7.34-3.483-7.34s-.063-3.233-.063-3.856.683-5.225-3.173-6.034c-3.857-.809-6.78-.682-9.331-1.555-2.55-.869-4.725-3.11-4.725-3.11s-9.64 3.856-9.827 12.128c0 0 3.67 3.546 5.101 6.094 1.432 2.547 3.234 8.708 5.535 8.83l6.467-9.453zm10.819 25.377L22.618 42.424s-4.602 3.92-2.551 6.034c2.051 2.115 5.474-.25 5.474-.25s-1.432 2.924 0 4.106c1.432 1.183 5.102-.436 5.102-.436s-1.492 2.987.746 4.106 5.847-1.618 7.03-2.987z"/><path stroke="#002140" stroke-linecap="round" stroke-linejoin="round" stroke-width=".999" d="m40.68 30.413 15.637 10.636a2.53 2.53 0 0 1 .67 3.513l-8.349 12.275a2.53 2.53 0 0 1-3.513.669l-23.92-16.27a2.53 2.53 0 0 1-.669-3.514l7.07-10.393"/><path fill="#085239" d="m31.964 35.571-.325-.221a.58.58 0 0 0-.805.153l-.59.868a.58.58 0 0 0 .153.805l.325.22a.58.58 0 0 0 .805-.153l.59-.867a.58.58 0 0 0-.153-.805m1.265-1.821-.325-.221a.58.58 0 0 0-.805.153l-.38.56a.58.58 0 0 0 .153.804l.325.221a.58.58 0 0 0 .805-.153l.38-.56a.58.58 0 0 0-.153-.804m.181 3.233-.324-.221a.58.58 0 0 0-.805.153l-.38.56a.58.58 0 0 0 .153.804l.325.221a.58.58 0 0 0 .805-.153l.38-.56a.58.58 0 0 0-.154-.804m1.404-2.152-.325-.22a.58.58 0 0 0-.805.153l-.644.947a.58.58 0 0 0 .153.805l.325.22a.58.58 0 0 0 .805-.153l.644-.947a.58.58 0 0 0-.153-.805"/><path fill="#03d47c" d="m53.031 41.759-8.252-5.613a2.261 2.261 0 0 0-2.543 3.74l8.252 5.612a2.261 2.261 0 0 0 2.543-3.74"/><path stroke="#002140" stroke-linecap="round" stroke-linejoin="round" stroke-width=".999" d="M20.183 10s-9.32 3.706-9.85 11.971c6.047 4.785 6.943 12.105 10.546 15.152m1.831 5.138c-2.767 2.028-4.265 5.518-1.834 6.71 1.818.889 4-.363 5.401-1.522"/><path stroke="#002140" stroke-linecap="round" stroke-linejoin="round" stroke-width=".999" d="M27.912 45.944c-2.987 2.464-4.379 5.491-1.948 6.68 1.588.78 3.46-.083 4.842-1.086m2.164-2.218c-3.1 2.818-4.196 5.608-1.765 6.797 1.818.89 4.196.19 7.166-3.207M24.013 38.978l4.938 3.36m2.261 1.538 4.938 3.357"/><path fill="#085239" d="m29.494 36.164 2.737-4.026a.46.46 0 0 0-.12-.636l-1.375-.936a.46.46 0 0 0-.4-.057l-.879.284a.46.46 0 0 0-.24.18l-1.988 2.923a.46.46 0 0 0-.08.263l.007.743c0 .15.077.29.203.376l1.499 1.009a.46.46 0 0 0 .636-.123"/><path stroke="#002140" stroke-linecap="round" stroke-linejoin="round" stroke-width=".999" d="M25.511 26.21s3.867 2.94 6.567.636c-.636 5.402 2.091 9.984 6.887 7.733 4.791-2.251-1.086-7.892-1.482-10.833s1.192-5.401-1.429-7.945-11.388-.716-15.73-5.801"/></svg>
